packages/assets/static/images/icons/video.svg

<svg width="24" height="24" viewBox="0 0 24 24" xmlns="http://www.w3.org/2000/svg" fill="currentColor" aria-hidden="true"> <path d="M20.2499 3.37549H3.74994C3.25266 3.37549 2.77574 3.57303 2.42411 3.92466C2.07248 4.27629 1.87494 4.75321 1.87494 5.25049V15.0005C1.87494 15.4978 2.07248 15.9747 2.42411 16.3263C2.77574 16.6779 3.25266 16.8755 3.74994 16.8755H20.2499C20.7472 16.8755 21.2241 16.6779 21.5758 16.3263C21.9274 15.9747 22.1249 15.4978 22.1249 15.0005V5.25049C22.1249 4.75321 21.9274 4.27629 21.5758 3.92466C21.2241 3.57303 20.7472 3.37549 20.2499 3.37549ZM19.8749 14.6255H4.12494V5.62549H19.8749V14.6255ZM22.1249 19.5005C22.1249 19.7989 22.0064 20.085 21.7954 20.296C21.5845 20.507 21.2983 20.6255 20.9999 20.6255H2.99994C2.70157 20.6255 2.41542 20.507 2.20444 20.296C1.99347 20.085 1.87494 19.7989 1.87494 19.5005C1.87494 19.2021 1.99347 18.916 2.20444 18.705C2.41542 18.494 2.70157 18.3755 2.99994 18.3755H20.9999C21.2983 18.3755 21.5845 18.494 21.7954 18.705C22.0064 18.916 22.1249 19.2021 22.1249 19.5005ZM9.74994 12.0005V8.25049C9.74987 8.04964 9.80358 7.85243 9.90548 7.67935C10.0074 7.50627 10.1538 7.36362 10.3294 7.26623C10.5051 7.16883 10.7036 7.12024 10.9044 7.1255C11.1052 7.13075 11.3009 7.18966 11.4712 7.29611L14.4712 9.17111C14.6332 9.2722 14.7667 9.41285 14.8593 9.57981C14.952 9.74678 15.0005 9.93456 15.0005 10.1255C15.0005 10.3164 14.952 10.5042 14.8593 10.6712C14.7667 10.8381 14.6332 10.9788 14.4712 11.0799L11.4712 12.9549C11.3009 13.0613 11.1052 13.1202 10.9044 13.1255C10.7036 13.1307 10.5051 13.0821 10.3294 12.9847C10.1538 12.8874 10.0074 12.7447 9.90548 12.5716C9.80358 12.3985 9.74987 12.2013 9.74994 12.0005Z"/> </svg>

<svg viewBox="0 0 24 24" xmlns="http://www.w3.org/2000/svg" aria-hidden="true" fill="currentColor"><path d="M20.25 3.375H3.75A1.875 1.875 0 0 0 1.875 5.25V15a1.875 1.875 0 0 0 1.875 1.875h16.5a1.875 1.875 0 0 0 1.875-1.874V5.25a1.875 1.875 0 0 0-1.875-1.876m-.375 11.25H4.125v-9h15.75zm2.25 4.875A1.125 1.125 0 0 1 21 20.626H3a1.125 1.125 0 1 1 0-2.25h18a1.125 1.125 0 0 1 1.125 1.125M9.75 12V8.25a1.125 1.125 0 0 1 1.721-.954l3 1.875a1.125 1.125 0 0 1 0 1.909l-3 1.875A1.126 1.126 0 0 1 9.75 12"/></svg>
